X: 10
T: Wise Maid, The
Z: UPipes & harp
S: https://thesession.org/tunes/118#setting48008
R: reel
M: 4/4
L: 1/8
K: Dmaj
|:~F3 G FEDE|FAAB AFED|d2 (3efg fdec|dBAF BE ~E2|
~F3 G FEDE|FAAB AFED|d2 (3efg fdec|1 dBAG FDD E:|2 dBAG FDD A||
|:d2 AG FDFA|dfaf gfeg|fAdf eAce|dfed cA~A2|
BDGB ADFA|dfaf gfed|BABc dBAG|1 FAEA D3 A:|2 FAEA D3 E||

%-------------------- TUNE SEPARATOR --------------------%

